X: 702
T: Zhuyngtai xiashan
L: 1/8
M: 2/4
K: F
c A c d [I:setbarnb 1]| 
A G c A | 
c c E F | 
G4 | 
c2A A | 
G DF2 | 
E E D F | 
G4 | 
c2c2 | 
A c d d | 
f Ac2- | 
c2A c | 
f dc2 | 
A c G G | 
A cG2 | 
c2G F | 
C D F D | 
F4 |]

@@@ Tune index: 9576
